SVG_Azure_All/Peering.svg

<?xml version="1.0" encoding="UTF-8" standalone="no"?>
<!-- Generated by Microsoft Visio, SVG Export Peering.svg Page-1 -->

<svg
   xmlns:dc="http://purl.org/dc/elements/1.1/"
   xmlns:cc="http://creativecommons.org/ns#"
   xmlns:rdf="http://www.w3.org/1999/02/22-rdf-syntax-ns#"
   xmlns:svg="http://www.w3.org/2000/svg"
   xmlns="http://www.w3.org/2000/svg"
   xmlns:sodipodi="http://sodipodi.sourceforge.net/DTD/sodipodi-0.dtd"
   xmlns:inkscape="http://www.inkscape.org/namespaces/inkscape"
   width="0.78745443in"
   height="0.67463946in"
   viewBox="0 0 56.696627 48.574075"
   xml:space="preserve"
   class="st5"
   version="1.1"
   id="svg40"
   sodipodi:docname="Peering.svg"
   style="font-size:12px;overflow:visible;color-interpolation-filters:sRGB;fill:none;fill-rule:evenodd;stroke-linecap:square;stroke-miterlimit:3"
   inkscape:version="0.92.5 (2060ec1f9f, 2020-04-08)"><metadata
   id="metadata44"><rdf:RDF><cc:Work
       rdf:about=""><dc:format>image/svg+xml</dc:format><dc:type
         rdf:resource="http://purl.org/dc/dcmitype/StillImage" /></cc:Work></rdf:RDF></metadata><sodipodi:namedview
   pagecolor="#ffffff"
   bordercolor="#666666"
   borderopacity="1"
   objecttolerance="10"
   gridtolerance="10"
   guidetolerance="10"
   inkscape:pageopacity="0"
   inkscape:pageshadow="2"
   inkscape:window-width="640"
   inkscape:window-height="480"
   id="namedview42"
   showgrid="false"
   inkscape:zoom="1.5183239"
   inkscape:cx="37.801656"
   inkscape:cy="32.379084"
   inkscape:window-x="0"
   inkscape:window-y="0"
   inkscape:window-maximized="0"
   inkscape:current-layer="svg40" />
	<style
   type="text/css"
   id="style2">
	<![CDATA[
		.st1 {fill:url(#grad0-6);stroke:none;stroke-linecap:butt;stroke-width:34}
		.st2 {fill:#ffffff;stroke:none;stroke-linecap:butt;stroke-width:34}
		.st3 {fill:#0078d4;stroke:none;stroke-linecap:butt;stroke-width:34}
		.st4 {fill:#83b9f9;stroke:none;stroke-linecap:butt;stroke-width:34}
		.st5 {fill:none;fill-rule:evenodd;font-size:12px;overflow:visible;stroke-linecap:square;stroke-miterlimit:3}
	]]>
	</style>

	<defs
   id="Patterns_And_Gradients">
		<linearGradient
   id="grad0-6"
   x1="0"
   y1="100.10265"
   x2="37.366229"
   y2="100.10265"
   gradientTransform="scale(1.1791396,0.84807601)"
   gradientUnits="userSpaceOnUse">
			<stop
   offset="0"
   stop-color="#773adc"
   stop-opacity="1"
   id="stop4" />
			<stop
   offset="1"
   stop-color="#a67af4"
   stop-opacity="1"
   id="stop6" />
		</linearGradient>
	</defs>
	<g
   id="g38"
   transform="translate(-33.995384,-33.998257)">
		<title
   id="title10">Page-1</title>
		<g
   id="group2346-1"
   transform="translate(34,-34.3816)">
			<title
   id="title12">Peering</title>
			<g
   id="group2347-2">
				<title
   id="title14">Sheet.2347</title>
				<g
   id="shape2348-3"
   transform="translate(12.632,-16.5148)">
					<title
   id="title16">Sheet.2348</title>
					<path
   d="M 44.06,106.56 A 9.91165,9.96904 -180 0 0 35.47,96.88 12.4683,12.5405 -180 0 0 22.65,84.9 12.8272,12.9015 -180 0 0 10.39,93.38 11.7976,11.8659 -180 0 0 0,104.83 11.9928,12.0623 -180 0 0 12.3,116.58 h 21.82 a 10.0376,10.0957 -180 0 0 9.94,-10.02 z"
   class="st1"
   id="path18"
   inkscape:connector-curvature="0"
   style="fill:url(#grad0-6);stroke:none;stroke-width:34;stroke-linecap:butt" />
				</g>
				<g
   id="shape2349-7"
   transform="translate(22.6066,-20.7678)">
					<title
   id="title21">Sheet.2349</title>
					<path
   d="m 22.51,102.18 -5.87,-5.74 c -0.63,-0.63 -1.18,-0.42 -1.18,0.58 v 2.58 a 0.705277,0.70936 0 0 1 -0.705277,0.71253 L 14.72,100.31 c -3.78,0 -14.34,1.01 -14.72,15.52 a 0.736762,0.741028 -180 0 0 0.736762,0.7442 L 4.49,116.58 a 0.739911,0.744195 -180 0 0 0.743059,-0.74103 L 5.23,115.77 a 8.85689,8.90817 0 0 1 9.62,-10.75 0.739911,0.744195 0 0 1 0.736762,0.7442 L 15.58,108.15 c 0,1.19 0.39,1.39 1.19,0.58 l 5.74,-5.32 a 0.736762,0.741028 -180 0 0 0.19521,-1.02921 0.821773,0.826531 -180 0 0 -0.19521,-0.19634 z"
   class="st2"
   id="path23"
   inkscape:connector-curvature="0"
   style="fill:#ffffff;stroke:none;stroke-width:34;stroke-linecap:butt" />
				</g>
				<g
   id="shape2350-9"
   transform="translate(0.406178)">
					<title
   id="title26">Sheet.2350</title>
					<ellipse
   cx="16.9361"
   cy="99.541603"
   rx="16.9361"
   ry="17.0341"
   class="st3"
   id="ellipse28"
   style="fill:#0078d4;stroke:none;stroke-width:34;stroke-linecap:butt" />
				</g>
				<g
   id="shape2351-11"
   transform="translate(0,-0.918368)">
					<title
   id="title31">Sheet.2351</title>
					<path
   d="m 34.65,99.88 h -0.03 a 17.3171,17.4173 -180 1 0 0,1.15 h 0.03 z m -7.18,0 a 19.9304,20.0458 -180 0 0 -1.39,-7.25 h 5.35 a 15.9663,16.0588 0 0 1 2.03,7.25 z m -26.26,1.15 h 6.23 a 19.8674,19.9824 -180 0 0 1.43,7.26 H 3.25 A 15.9537,16.0461 0 0 1 1.22,101.03 Z M 24.3,91.49 h -6.39 v -6.52 a 18.2144,18.3199 0 0 1 6.39,6.52 z m -7.53,0 h -5.98 a 19.3038,19.4156 0 0 1 5.98,-6.06 z m 0,1.14 v 7.25 H 8.58 a 17.3171,17.4173 0 0 1 1.64,-7.25 z M 7.43,99.88 H 1.22 a 15.9632,16.0556 0 0 1 2.02,-7.25 h 5.72 a 18.6489,18.7569 -180 0 0 -1.53,7.25 z m 1.15,1.15 h 8.18 v 7.26 h -6.61 a 18.3876,18.494 0 0 1 -1.57,-7.26 z m 8.18,8.41 v 6.43 a 18.6993,18.8075 0 0 1 -6.06,-6.43 z m 1.15,0 h 6.29 a 18.8693,18.9785 0 0 1 -6.29,6.59 z m 0,-1.15 v -7.26 h 8.43 a 18.3876,18.494 0 0 1 -1.58,7.26 z m 0,-8.41 v -7.25 h 6.92 a 18.5072,18.6144 0 0 1 1.5,7.25 z m 12.9,-8.39 h -5.27 a 18.7717,18.8804 -180 0 0 -6.5,-7.13 16.1332,16.2266 0 0 1 11.78,7.13 z M 16.44,84.27 A 20.2924,20.4099 -180 0 0 9.53,91.49 H 3.86 A 16.1426,16.2361 0 0 1 16.44,84.27 Z M 3.87,109.44 h 5.55 a 19.329,19.4409 -180 0 0 6.34,7.14 16.1395,16.2329 0 0 1 -11.89,-7.14 z m 15.31,7.11 a 19.2723,19.3839 -180 0 0 6.31,-7.11 h 5.33 a 16.1489,16.2424 0 0 1 -11.64,7.11 z m 12.26,-8.26 h -5.39 a 19.8013,19.9159 -180 0 0 1.43,-7.26 h 5.98 a 15.9947,16.0873 0 0 1 -2.02,7.26 z"
   class="st4"
   id="path33"
   inkscape:connector-curvature="0"
   style="fill:#83b9f9;stroke:none;stroke-width:34;stroke-linecap:butt" />
				</g>
			</g>
		</g>
	</g>
</svg>

<?xml version="1.0" encoding="UTF-8" standalone="no"?>
<!DOCTYPE svg PUBLIC "-//W3C//DTD SVG 1.1//EN" "http://www.w3.org/Graphics/SVG/1.1/DTD/svg11.dtd">
<!-- Generated by Microsoft Visio, SVG Export Peering.svg Page-1 -->
<svg xmlns="http://www.w3.org/2000/svg" xmlns:xlink="http://www.w3.org/1999/xlink" xmlns:ev="http://www.w3.org/2001/xml-events"
		width="1.73185in" height="1.61911in" viewBox="0 0 124.693 116.576" xml:space="preserve" color-interpolation-filters="sRGB"
		class="st5">
	<style type="text/css">
	<![CDATA[
		.st1 {fill:url(#grad0-6);stroke:none;stroke-linecap:butt;stroke-width:34}
		.st2 {fill:#ffffff;stroke:none;stroke-linecap:butt;stroke-width:34}
		.st3 {fill:#0078d4;stroke:none;stroke-linecap:butt;stroke-width:34}
		.st4 {fill:#83b9f9;stroke:none;stroke-linecap:butt;stroke-width:34}
		.st5 {fill:none;fill-rule:evenodd;font-size:12px;overflow:visible;stroke-linecap:square;stroke-miterlimit:3}
	]]>
	</style>

	<defs id="Patterns_And_Gradients">
		<linearGradient id="grad0-6" x1="0" y1="0" x2="1" y2="0" gradientTransform="rotate(-90 0.5 0.5)">
			<stop offset="0" stop-color="#773adc" stop-opacity="1"/>
			<stop offset="1" stop-color="#a67af4" stop-opacity="1"/>
		</linearGradient>
	</defs>
	<g>
		<title>Page-1</title>
		<g id="group2331-1" transform="translate(34,-34.3816)">
			<title>Peering</title>
			<g id="group2332-2">
				<title>Sheet.2332</title>
				<g id="shape2333-3" transform="translate(12.632,-16.5148)">
					<title>Sheet.2333</title>
					<path d="M44.06 106.56 A9.91165 9.96904 -180 0 0 35.47 96.88 A12.4683 12.5405 -180 0 0 22.65 84.9 A12.8272 12.9015
								 -180 0 0 10.39 93.38 A11.7976 11.8659 -180 0 0 0 104.83 A11.9928 12.0623 -180 0 0 12.3 116.58 L34.12
								 116.58 A10.0376 10.0957 -180 0 0 44.06 106.56 Z" class="st1"/>
				</g>
				<g id="shape2334-7" transform="translate(22.6066,-20.7678)">
					<title>Sheet.2334</title>
					<path d="M22.51 102.18 L16.64 96.44 C16.01 95.81 15.46 96.02 15.46 97.02 L15.46 99.6 a0.705277 0.70936 0 0 1
								 -0.705277 0.712527 L14.72 100.31 C10.94 100.31 0.38 101.32 0 115.83 a0.736762 0.741028 -180 0 0
								 0.736762 0.744195 L4.49 116.58 a0.739911 0.744195 -180 0 0 0.743059 -0.741028 L5.23 115.77 A8.85689
								 8.90817 0 0 1 14.85 105.02 a0.739911 0.744195 0 0 1 0.736762 0.744195 L15.58 108.15 C15.58 109.34
								 15.97 109.54 16.77 108.73 L22.51 103.41 a0.736762 0.741028 -180 0 0 0.19521 -1.02921 a0.821773 0.826531
								 -180 0 0 -0.19521 -0.196341 Z" class="st2"/>
				</g>
				<g id="shape2335-9" transform="translate(0.406178,0)">
					<title>Sheet.2335</title>
					<ellipse cx="16.9361" cy="99.5416" rx="16.9361" ry="17.0341" class="st3"/>
				</g>
				<g id="shape2336-11" transform="translate(0,-0.918368)">
					<title>Sheet.2336</title>
					<path d="M34.65 99.88 L34.62 99.88 A17.3171 17.4173 -180 1 0 34.62 101.03 L34.65 101.03 L34.65 99.88 ZM27.47
								 99.88 A19.9304 20.0458 -180 0 0 26.08 92.63 L31.43 92.63 A15.9663 16.0588 0 0 1 33.46 99.88 L27.47
								 99.88 ZM1.21 101.03 L7.44 101.03 A19.8674 19.9824 -180 0 0 8.87 108.29 L3.25 108.29 A15.9537 16.0461
								 0 0 1 1.22 101.03 L1.21 101.03 ZM24.3 91.49 L17.91 91.49 L17.91 84.97 A18.2144 18.3199 0 0 1 24.3
								 91.49 ZM16.77 91.49 L10.79 91.49 A19.3038 19.4156 0 0 1 16.77 85.43 L16.77 91.49 ZM16.77 92.63 L16.77
								 99.88 L8.58 99.88 A17.3171 17.4173 0 0 1 10.22 92.63 L16.77 92.63 ZM7.43 99.88 L1.22 99.88 A15.9632
								 16.0556 0 0 1 3.24 92.63 L8.96 92.63 A18.6489 18.7569 -180 0 0 7.43 99.88 ZM8.58 101.03 L16.76 101.03
								 L16.76 108.29 L10.15 108.29 A18.3876 18.494 0 0 1 8.58 101.03 ZM16.76 109.44 L16.76 115.87 A18.6993
								 18.8075 0 0 1 10.7 109.44 L16.76 109.44 ZM17.91 109.44 L24.2 109.44 A18.8693 18.9785 0 0 1 17.91
								 116.03 L17.91 109.44 ZM17.91 108.29 L17.91 101.03 L26.34 101.03 A18.3876 18.494 0 0 1 24.76 108.29
								 L17.91 108.29 ZM17.91 99.88 L17.91 92.63 L24.83 92.63 A18.5072 18.6144 0 0 1 26.33 99.88 L17.91
								 99.88 ZM30.81 91.49 L25.54 91.49 A18.7717 18.8804 -180 0 0 19.04 84.36 A16.1332 16.2266 0 0 1 30.82
								 91.49 L30.81 91.49 ZM16.44 84.27 A20.2924 20.4099 -180 0 0 9.53 91.49 L3.86 91.49 A16.1426 16.2361
								 0 0 1 16.44 84.27 ZM3.87 109.44 L9.42 109.44 A19.329 19.4409 -180 0 0 15.76 116.58 A16.1395 16.2329
								 0 0 1 3.87 109.44 ZM19.18 116.55 A19.2723 19.3839 -180 0 0 25.49 109.44 L30.82 109.44 A16.1489 16.2424
								 0 0 1 19.18 116.55 ZM31.44 108.29 L26.05 108.29 A19.8013 19.9159 -180 0 0 27.48 101.03 L33.46 101.03
								 A15.9947 16.0873 0 0 1 31.44 108.29 Z" class="st4"/>
				</g>
			</g>
		</g>
	</g>
</svg>
